X:1
T:Title
%%score { 1 | 2 }
L:1/8
Q:1/4=106
M:4/4
K:A
V:1 treble nm="Grand Piano"
V:2 bass 
V:1
 [CE]3 [CE] [CE][CE][DF][CE] | [CE] [CA]3- [CA] z z2 | B3 B BBcc | B6 z2 | c3 c cccB | %5
w: J.~H.~Rosecrans * * * * *|||||
 A F3- F z z2 | E3 E EEFG | [CEA]6 z2 | c3 c ccc[=Gc] | [Fd] [Fd]3- [Fd] z z2 | c3 c cc[Ee][Ee] | %11
w: ||||||
 B6 z2 | B3 c dGAB | c c3- c z z2 | F3 [DFB] [CEA][CE][B,EF][DEG] | [CEA]6 z2 |] %16
w: |||||
V:2
 [A,,A,]3 [A,,A,] [A,,A,][A,,A,][A,,A,][A,,A,] | [A,,A,] [A,,E,]3- [A,,E,] z z2 | %2
 [E,G,E]3 [E,G,E] [E,G,E][E,G,E][A,E][A,E] | [E,G,E]6 z2 | [A,E]3 [A,E] [A,E][A,E][A,E][E,G,D] | %5
 [F,A,C] [D,A,D]3- [D,A,D] z z2 | [E,A,C]3 [E,A,C] [E,B,D][E,B,D][E,B,D][E,DE] | A,,6 z2 | %8
 [A,E]3 [A,E] [A,E][=G,A,E][F,A,F][E,A,] | [D,A,] [D,A,]3- [D,A,] z z2 | %10
 [A,E]3 [A,E] [A,E][A,E][C,A,][C,A,] | [E,G,E]6 z2 | [E,G,E]3 [E,A,E] [E,B,E][E,DE][F,CE][G,B,E] | %13
 [A,E] [A,E]3- [A,E] z z2 | [D,A,D]3 B,, E,E,E,E, | A,,6 z2 |] %16

